X:1
T:Title
%%score { ( 1 4 ) | ( 2 3 ) }
L:1/8
M:4/4
K:G
V:1 treble nm="Grand Piano"
V:4 treble 
V:2 bass 
V:3 bass 
V:1
 z4 z2[Q:1/4=100] D>D | D2 B2 B2 A>F | G6 D>D | D2 GB d2 [Fc]>[FA] | B6 B2 | A3 A BAB^c | %6
 [Fd]6 A2 | A2 G2 [DF]2 [^CE]2 | D6 D>D | [B,D]2 [DB]2 A2 F2 | G6 D>D | D2 GB d2 [Fc]>[FA] | %12
 B6 B>B | A6 z2 | c6 z2 | [A,DF]2 [B,DG]2 [DB]2 [CDA]2 | [B,DG]6 D>D | D2 B2 B2 A>F | G6 D>D | %19
 D2 GB d2 [Fc]>[FA] | [GB]6 [GB]2 | [FA]2 [GB]2 [Ac]2 [FA]2 | [DGB]2 [DAc]2 [Bd]2 [G,G]2 | %23
 [GB]3 A G2 F2 |[M:3/4] [B,G]6 |] %25
V:2
 z4 z2 [G,B,]>[G,B,] | [G,B,]2 [G,D]2 [G,D]2 [D,F,C]>[D,A,C] | [G,B,]6 [G,B,]>[G,B,] | z2 .B,2 z4 | %4
 [G,DG]6 [G,DG]2 | [A,CF]3 [A,DF] [A,DG][A,DF][A,DG][A,G] | [D,A,]6 [F,A,D]2 | %7
 [A,DF]2 [A,E]2[K:bass] [A,,A,]2 [A,,G,]2 | [D,F,]6 [D,F,C]>[D,F,C] | %9
 [G,,G,]2 [G,,G,]2 [D,F,B,]2 [D,A,C]2 | [G,B,]6 [G,B,]>[G,B,] | z2 .B,2 z4 | [G,DG]6 D>D | %13
 C2[K:bass] C,>C, C,2 D>D | E6 z2 | D,2 D,2 D,2 D,2 | G,,6 [G,B,]>[G,B,] | %17
 [G,B,]2 [G,D]2 [G,D]2 [D,F,C]>[D,A,C] | [G,B,]6 [G,B,]>[G,B,] | z2 .B,2 z4 | [G,D]6 [G,D]2 | %21
 [D,D]2 [D,D]2 [D,D]2 [D,D]2 | G,2 G,2 G,2 E,2 | [D,G,]3 [D,CD] [D,B,D]2 [D,A,C]2 | %24
[M:3/4] [G,,G,]6 |] %25
V:3
 x8 | x8 | x8 | [G,B,]2 G,-[G,D] [G,B,G]2 [D,A,]>[D,D] | x8 | x8 | x8 | x4[K:bass] x4 | x8 | x8 | %10
 x8 | [G,B,]2 G,-[G,D] [G,B,G]2 [D,A,]>[D,D] | x8 | x2[K:bass] x6 | z2 A,,>A,, A,,2 A,,>A,, | x8 | %16
 x8 | x8 | x8 | [G,B,]2 G,-[G,D] [G,B,G]2 [D,A,]>[D,D] | x8 | x8 | x8 | x8 |[M:3/4] x6 |] %25
V:4
 x8 | x8 | x8 | x8 | x8 | x8 | x8 | x8 | x8 | x8 | x8 | x8 | x8 | z2 C>C C2 B>B | %14
 z2 C>C C2 [CEA]>[B,EG] | x8 | x8 | x8 | x8 | x8 | x8 | x8 | x8 | x8 |[M:3/4] x6 |] %25

